X:1
T:Title
%%score { ( 1 3 4 ) | ( 2 5 ) }
L:1/8
Q:1/4=144
M:2/2
K:Bb
V:1 treble nm="Grand Piano"
V:3 treble 
V:4 treble 
V:2 bass 
V:5 bass 
V:1
 [DB]4 [FA]2 [EG]2 | [DF]4 [DB]4 | [Ec]8 | F4 F4 | d3 d [Ec]2 [DB]2 | [EA]4 [DB]4 | [B,G]8- | %7
w: F.~L.~Stone * *|||||||
[M:3/4] [B,G]6 |[M:1/4] [EF]2 |[M:4/4] z4 B2 z2 | d4 [Bf]4 | [Be]4 [Gd]4 | [Gc]2 G2 A2 B2 | F4 B4 | %14
w: |||||||
 B6 A2 | [DB]8- | [DB]4 z4 |] %17
w: |||
V:2
 [B,,F,]4 [B,,G,]2 [B,,A,]2 | [B,,B,]4 [B,,F,]4 | [F,A,]4 z2[K:treble] E2 | [A,CE]4 [A,C]4 | %4
 [B,F]3 [B,F][K:bass] [B,,F,]2 [B,,B,]2 | [C,G,]4 [D,^F,]4 | [G,,G,]8- |[M:3/4] [G,,G,]6 | %8
[M:1/4] [F,A,]2 |[M:4/4] [B,,B,]4 [D,B,]2 [F,A,]2 | [B,F]4 [_A,D]4 | [G,E]4 [F,=B,]4 | %12
 [E,C]2 [E,B,E]2 [E,A,E]2 [E,G,E]2 | [F,B,D]4 [F,DF]4 | [F,CE]6 [F,E]2 | [B,,F,]8- | [B,,F,]4 z4 |] %17
V:3
 x8 | x8 | z4 z2 F2 | x8 | x8 | x8 | x8 |[M:3/4] x6 |[M:1/4] x2 |[M:4/4] [DF]4 F2- [Fc]2 | x8 | %11
 x8 | x8 | x8 | x8 | x8 | x8 |] %17
V:4
 x8 | x8 | z4 B,4 | x8 | x8 | x8 | x8 |[M:3/4] x6 |[M:1/4] x2 |[M:4/4] x8 | x8 | x8 | x8 | x8 | %14
 x8 | x8 | x8 |] %17
V:5
 x8 | x8 | z4 G,4[K:treble] | x8 | x4[K:bass] x4 | x8 | x8 |[M:3/4] x6 |[M:1/4] x2 |[M:4/4] x8 | %10
 x8 | x8 | x8 | x8 | x8 | x8 | x8 |] %17

